;FLAVOR:Marlin
;TIME:8715
;Filament used: 4.74432m
;Layer height: 0.2
;MINX:83.696
;MINY:86.7
;MINZ:0.24
;MAXX:126.304
;MAXY:123.3
;MAXZ:155.115
;Generated with Cura_SteamEngine 5.2.1
M82 ;absolute extrusion mode
;Profil Homepage: https://github.com/NilsRo/Cura_Anycubic_MegaS_Profile

;Slicer Information - (Support for OctoPrint Slicer Estimator)
;Slicer info:material_guid;0ff92885-617b-4144-a03c-9989872454bc
;Slicer info:material_id;generic_pla_175
;Slicer info:material_brand;Generic
;Slicer info:material_name;PLA
;Slicer info:filament_cost;[0.0]
;Slicer info:material_bed_temperature;50.0
;Slicer info:material_bed_temperature_layer_0;60.0
;Slicer info:material_print_temperature;195.0
;Slicer info:material_print_temperature_layer_0;200.0
;Slicer info:material_flow;100
;Slicer info:layer_height;0.2
;Slicer info:machine_nozzle_size;0.4
;Slicer info:wall_thickness;1.2000000000000002
;Slicer info:speed_print;70.0
;Slicer info:speed_topbottom;50.0
;Slicer info:travel_speed;150.0
;Slicer info:support;0
;Slicer info:retraction_speed;30
;Slicer info:retraction_amount;6
;Slicer info:layer_height;0.2
;Slicer info:infill_pattern;grid
;Slicer info:infill_sparse_density;25
;Slicer info:cool_fan_enabled;True
;Slicer info:cool_fan_speed;100
;Slicer info:sliced_at;Thu 26-09-2024 16:08:01
G21                                        ; metric values 
G90                                        ; absolute positioning 
M82                                        ; set extruder to absolute mode 
M107                                       ; start with the fan off 
M140 S60.0   ; Start heating the bed 
G4 S60                                     ; wait 1 minute 
M104 S200.0 ; start heating the hot end 
M190 S60.0   ; wait for bed 
M109 S200.0 ; wait for hotend 
M300 S1000 P500                            ; BEEP heating done 
G28 X0 Y10 Z0                              ; move X/Y to min endstops 
M420 S1                                    ; Enable leveling 
M420 Z2.0                                  ; Set leveling fading height to 2 mm 
G0 Z0.15                                   ; lift nozzle a bit 
G92 E0                                     ; zero the extruded length 
G1 X50 E20 F500                            ; Extrude 20mm of filament in a 5cm line. 
G92 E0                                     ; zero the extruded length again 
G1 E-2 F500                                ; Retract a little 
G1 X50 F500                                ; wipe away from the filament line
G1 X100 F9000                              ; Quickly wipe away from the filament line
G92 E0
G92 E0
G1 F1800 E-6
;LAYER_COUNT:775
;LAYER:0
M106 S76.5
M204 S3000
M205 X10 Y10
G1 F480 Z0.315
G0 F9000 X92.593 Y92.428 Z0.315
M204 S2000
M205 X8 Y8
;TYPE:SKIRT
G1 F480 Z0.24
G1 F1800 E0
G1 F2400 X93.572 Y91.602 E0.05112
G1 X94.287 Y91.057 E0.08701
G1 X95.062 Y90.587 E0.12318
G1 X95.757 Y90.213 E0.15468
G1 X96.272 Y89.99 E0.17708
G1 X97.119 Y89.66 E0.21336
G1 X97.869 Y89.411 E0.2449
G1 X98.429 Y89.278 E0.26787
G1 X99.178 Y89.129 E0.29835
G1 X99.959 Y89.014 E0.32986
G1 X100.699 Y88.979 E0.35943
G1 X109.024 Y88.978 E0.6917
G1 X109.906 Y89.028 E0.72696
G1 X110.654 Y89.113 E0.757
G1 X111.54 Y89.26 E0.79285
G1 X112.397 Y89.494 E0.82831
G1 X113.277 Y89.784 E0.86529
G1 X114.331 Y90.269 E0.9116
G1 X115.031 Y90.635 E0.94312
G1 X115.528 Y90.953 E0.96667
G1 X116.289 Y91.483 E1.00368
G1 X116.913 Y91.967 E1.0352
G1 X117.572 Y92.593 E1.07148
G1 X118.398 Y93.572 E1.1226
G1 X118.943 Y94.287 E1.15849
G1 X119.413 Y95.062 E1.19466
G1 X119.787 Y95.757 E1.22616
G1 X120.01 Y96.272 E1.24856
G1 X120.34 Y97.119 E1.28484
G1 X120.589 Y97.869 E1.31638
G1 X120.722 Y98.429 E1.33936
G1 X120.871 Y99.178 E1.36984
G1 X120.986 Y99.959 E1.40134
G1 X121.021 Y100.699 E1.43091
G1 X121.022 Y109.024 E1.76318
G1 X120.972 Y109.906 E1.79844
G1 X120.887 Y110.654 E1.82849
G1 X120.74 Y111.54 E1.86433
G1 X120.505 Y112.399 E1.89988
G1 X120.215 Y113.279 E1.93686
G1 X119.733 Y114.328 E1.98293
G1 X119.367 Y115.027 E2.01442
G1 X119.044 Y115.531 E2.03832
G1 X118.618 Y116.142 E2.06804
G1 X118.135 Y116.766 E2.09954
G1 X117.741 Y117.191 E2.12267
G1 X117.212 Y117.721 E2.15256
G1 X116.626 Y118.251 E2.18409
G1 X116.215 Y118.565 E2.20474
G1 X115.649 Y118.968 E2.23247
G1 X114.652 Y119.571 E2.27897
G1 X113.932 Y119.936 E2.31119
G1 X113.21 Y120.257 E2.34273
G1 X112.203 Y120.569 E2.3848
G1 X111.422 Y120.754 E2.41684
G1 X110.338 Y120.931 E2.46067
G1 X109.696 Y120.99 E2.48641
G1 X108.981 Y121.023 E2.51497
G1 X100.974 Y121.022 E2.83455
G1 X100.094 Y120.972 E2.86973
G1 X99.346 Y120.887 E2.89978
G1 X98.46 Y120.74 E2.93562
G1 X97.603 Y120.506 E2.97108
G1 X96.723 Y120.216 E3.00806
G1 X95.669 Y119.731 E3.05437
G1 X94.969 Y119.365 E3.08589
G1 X94.468 Y119.044 E3.10964
G1 X93.708 Y118.514 E3.14662
G1 X93.084 Y118.03 E3.17814
G1 X92.431 Y117.408 E3.21414
G1 X91.655 Y116.498 E3.26187
G1 X91.105 Y115.782 E3.2979
G1 X90.495 Y114.785 E3.34455
G1 X90.118 Y114.091 E3.37607
G1 X89.732 Y113.129 E3.41745
G1 X89.442 Y112.238 E3.45484
G1 X89.236 Y111.476 E3.48635
G1 X89.11 Y110.71 E3.51733
G1 X89.028 Y109.993 E3.54614
G1 X88.977 Y109.106 E3.5816
G1 X88.978 Y100.974 E3.90616
G1 X89.028 Y100.094 E3.94134
G1 X89.113 Y99.346 E3.97139
G1 X89.26 Y98.46 E4.00723
G1 X89.495 Y97.601 E4.04278
G1 X89.785 Y96.721 E4.07976
G1 X90.267 Y95.672 E4.12583
G1 X90.633 Y94.973 E4.15733
G1 X90.953 Y94.472 E4.18105
G1 X91.483 Y93.711 E4.21807
G1 X91.967 Y93.087 E4.24959
G1 X92.593 Y92.428 E4.28586
M204 S3000
M205 X10 Y10
G0 F9000 X92.886 Y92.704
M204 S2000
M205 X8 Y8
G1 F2400 X93.83 Y91.907 E4.33517
G1 X94.519 Y91.384 E4.3697
G1 X95.269 Y90.929 E4.40471
G1 X95.946 Y90.565 E4.43539
G1 X96.418 Y90.363 E4.45588
G1 X97.265 Y90.033 E4.49216
G1 X97.995 Y89.791 E4.52285
G1 X98.507 Y89.67 E4.54385
G1 X99.256 Y89.521 E4.57433
G1 X100.017 Y89.411 E4.60502
G1 X100.699 Y89.379 E4.63227
G1 X109.024 Y89.378 E4.96454
G1 X109.861 Y89.425 E4.998
G1 X110.609 Y89.51 E5.02805
G1 X111.724 Y89.725 E5.07337
G1 X112.291 Y89.88 E5.09683
G1 X113.134 Y90.158 E5.13226
G1 X114.164 Y90.632 E5.17751
G1 X114.845 Y90.989 E5.2082
G1 X115.299 Y91.282 E5.22976
G1 X116.06 Y91.812 E5.26678
G1 X116.668 Y92.283 E5.29747
G1 X117.296 Y92.886 E5.33222
G1 X118.093 Y93.83 E5.38153
G1 X118.616 Y94.519 E5.41606
G1 X119.071 Y95.269 E5.45107
G1 X119.435 Y95.946 E5.48175
G1 X119.637 Y96.418 E5.50224
G1 X119.967 Y97.265 E5.53852
G1 X120.209 Y97.995 E5.56921
G1 X120.33 Y98.507 E5.59021
G1 X120.479 Y99.256 E5.62069
G1 X120.589 Y100.017 E5.65138
G1 X120.621 Y100.699 E5.67863
G1 X120.622 Y109.024 E6.0109
G1 X120.575 Y109.861 E6.04436
G1 X120.49 Y110.609 E6.07441
G1 X120.274 Y111.728 E6.11989
G1 X120.119 Y112.294 E6.14331
G1 X119.841 Y113.137 E6.17874
G1 X119.37 Y114.161 E6.22373
G1 X119.013 Y114.842 E6.25442
G1 X118.716 Y115.302 E6.27627
G1 X118.29 Y115.913 E6.306
G1 X117.818 Y116.521 E6.33672
G1 X117.458 Y116.909 E6.35784
G1 X116.929 Y117.439 E6.38773
G1 X116.263 Y118.039 E6.42351
G1 X115.417 Y118.642 E6.46497
G1 X114.471 Y119.214 E6.5091
G1 X113.751 Y119.579 E6.54132
G1 X113.048 Y119.891 E6.57201
G1 X112.111 Y120.18 E6.61115
G1 X111.33 Y120.365 E6.64318
G1 X110.301 Y120.533 E6.6848
G1 X109.659 Y120.592 E6.71053
G1 X108.981 Y120.623 E6.73762
G1 X100.974 Y120.622 E7.05719
G1 X100.139 Y120.575 E7.09057
G1 X99.391 Y120.49 E7.12062
G1 X98.276 Y120.275 E7.16594
G1 X97.709 Y120.12 E7.1894
G1 X96.866 Y119.842 E7.22483
G1 X95.836 Y119.368 E7.27008
G1 X95.155 Y119.011 E7.30077
G1 X94.697 Y118.716 E7.32252
G1 X93.937 Y118.186 E7.3595
G1 X93.33 Y117.714 E7.39019
G1 X92.54 Y116.918 E7.43495
G1 X91.96 Y116.238 E7.47062
G1 X91.43 Y115.547 E7.50538
G1 X90.836 Y114.576 E7.55081
G1 X90.47 Y113.9 E7.58149
G1 X90.112 Y113.005 E7.61996
G1 X89.822 Y112.114 E7.65736
G1 X89.623 Y111.371 E7.68806
G1 X89.507 Y110.665 E7.71661
G1 X89.425 Y109.948 E7.74542
G1 X89.377 Y109.106 E7.77908
G1 X89.378 Y100.974 E8.10364
G1 X89.425 Y100.139 E8.13702
G1 X89.51 Y99.391 E8.16707
G1 X89.726 Y98.272 E8.21256
G1 X89.881 Y97.706 E8.23598
G1 X90.159 Y96.863 E8.27141
G1 X90.63 Y95.839 E8.31639
G1 X90.987 Y95.158 E8.34708
G1 X91.282 Y94.701 E8.36879
G1 X91.812 Y93.94 E8.4058
G1 X92.283 Y93.332 E8.4365
G1 X92.886 Y92.704 E8.47125
M204 S3000
M205 X10 Y10
G0 F9000 X93.368 Y92.821
M204 S2000
M205 X8 Y8
G1 F2400 X94.088 Y92.213 E8.50886
G1 X94.976 Y91.574 E8.55253
G1 X95.476 Y91.271 E8.57586
G1 X96.244 Y90.86 E8.61063
G1 X97.41 Y90.406 E8.66057
G1 X98.246 Y90.13 E8.69571
G1 X99.334 Y89.914 E8.73998
G1 X100.075 Y89.807 E8.76986
G1 X100.699 Y89.779 E8.79479
G1 X109.024 Y89.778 E9.12706
G1 X109.815 Y89.823 E9.15868
G1 X110.563 Y89.908 E9.18873
G1 X111.619 Y90.111 E9.23164
G1 X112.186 Y90.266 E9.25511
G1 X112.995 Y90.534 E9.28912
G1 X113.997 Y90.995 E9.33314
G1 X114.783 Y91.409 E9.3686
G1 X115.832 Y92.14 E9.41963
G1 X116.422 Y92.6 E9.44949
G1 X117.179 Y93.368 E9.49253
G1 X117.787 Y94.088 E9.53014
G1 X118.426 Y94.976 E9.5738
G1 X118.729 Y95.476 E9.59714
G1 X119.14 Y96.244 E9.63191
G1 X119.594 Y97.41 E9.68185
G1 X119.87 Y98.246 E9.71698
G1 X120.086 Y99.334 E9.76126
G1 X120.193 Y100.075 E9.79114
G1 X120.221 Y100.699 E9.81607
G1 X120.222 Y109.024 E10.14834
G1 X120.177 Y109.815 E10.17996
G1 X120.092 Y110.563 E10.21
G1 X119.888 Y111.622 E10.25305
G1 X119.733 Y112.188 E10.27647
G1 X119.469 Y112.986 E10.31002
G1 X119.006 Y113.993 E10.35425
G1 X118.593 Y114.78 E10.38973
G1 X117.962 Y115.685 E10.43376
G1 X117.418 Y116.381 E10.46902
G1 X116.645 Y117.156 E10.51271
G1 X116.008 Y117.73 E10.54693
G1 X115.185 Y118.316 E10.58725
G1 X114.29 Y118.858 E10.62901
G1 X113.57 Y119.223 E10.66123
G1 X112.886 Y119.525 E10.69108
G1 X112.018 Y119.791 E10.72731
G1 X111.237 Y119.976 E10.75934
G1 X110.265 Y120.135 E10.79865
G1 X109.623 Y120.194 E10.82439
G1 X108.981 Y120.223 E10.85003
G1 X100.974 Y120.222 E11.16961
G1 X100.185 Y120.177 E11.20115
G1 X99.437 Y120.092 E11.2312
G1 X98.381 Y119.889 E11.27412
G1 X97.814 Y119.734 E11.29758
G1 X97.005 Y119.466 E11.33159
G1 X96.003 Y119.005 E11.37562
G1 X95.215 Y118.59 E11.41116
G1 X94.166 Y117.858 E11.46221
G1 X93.576 Y117.398 E11.49207
G1 X92.844 Y116.659 E11.53359
G1 X92.264 Y115.979 E11.56926
G1 X91.618 Y115.088 E11.61319
G1 X91.177 Y114.367 E11.64692
G1 X90.822 Y113.709 E11.67676
G1 X90.493 Y112.881 E11.71232
G1 X90.203 Y111.99 E11.74972
G1 X90.01 Y111.268 E11.77955
G1 X89.904 Y110.619 E11.80579
G1 X89.822 Y109.902 E11.8346
G1 X89.777 Y109.106 E11.86642
G1 X89.778 Y100.974 E12.19098
G1 X89.823 Y100.185 E12.22252
G1 X89.908 Y99.437 E12.25257
G1 X90.112 Y98.378 E12.29562
G1 X90.267 Y97.812 E12.31904
G1 X90.531 Y97.014 E12.35258
G1 X90.994 Y96.007 E12.39682
G1 X91.406 Y95.221 E12.43224
G1 X92.14 Y94.168 E12.48347
G1 X92.6 Y93.578 E12.51333
G1 X93.368 Y92.821 E12.55637
M204 S3000
M205 X10 Y10
G0 F9000 X93.626 Y93.126
M204 S2000
M205 X8 Y8
G1 F2400 X94.346 Y92.518 E12.59398
G1 X95.183 Y91.917 E12.63511
G1 X95.683 Y91.614 E12.65844
G1 X96.424 Y91.219 E12.69196
G1 X97.555 Y90.778 E12.74041
G1 X98.353 Y90.517 E12.77392
G1 X99.412 Y90.306 E12.81702
G1 X100.131 Y90.204 E12.846
G1 X100.699 Y90.179 E12.86869
G1 X109.024 Y90.178 E13.20096
G1 X109.77 Y90.22 E13.23078
G1 X110.518 Y90.305 E13.26083
G1 X111.513 Y90.497 E13.30127
G1 X112.08 Y90.652 E13.32474
G1 X113.1 Y91.023 E13.36805
G1 X113.83 Y91.359 E13.40013
G1 X114.577 Y91.753 E13.43384
G1 X115.603 Y92.468 E13.48375
G1 X116.175 Y92.915 E13.51272
G1 X116.874 Y93.626 E13.55252
G1 X117.482 Y94.346 E13.59013
G1 X118.083 Y95.183 E13.63126
G1 X118.386 Y95.683 E13.65459
G1 X118.781 Y96.424 E13.6881
G1 X119.222 Y97.555 E13.73656
G1 X119.483 Y98.353 E13.77007
G1 X119.694 Y99.412 E13.81316
G1 X119.796 Y100.131 E13.84215
G1 X119.821 Y100.699 E13.86484
G1 X119.822 Y109.024 E14.19711
G1 X119.78 Y109.77 E14.22693
G1 X119.695 Y110.518 E14.25698
G1 X119.503 Y111.516 E14.29754
G1 X119.348 Y112.082 E14.32096
G1 X118.979 Y113.095 E14.36399
G1 X118.643 Y113.826 E14.3961
G1 X118.248 Y114.576 E14.42993
G1 X117.634 Y115.456 E14.47276
G1 X117.115 Y116.118 E14.50633
G1 X116.362 Y116.873 E14.54889
G1 X115.757 Y117.418 E14.58139
G1 X114.953 Y117.99 E14.62077
G1 X114.109 Y118.501 E14.66015
G1 X113.389 Y118.866 E14.69237
G1 X112.724 Y119.158 E14.72136
G1 X111.926 Y119.401 E14.75465
G1 X111.145 Y119.586 E14.78669
G1 X110.228 Y119.736 E14.82377
G1 X109.586 Y119.795 E14.8495
G1 X108.981 Y119.823 E14.87368
G1 X100.974 Y119.822 E15.19325
G1 X100.23 Y119.78 E15.223
G1 X99.482 Y119.695 E15.25304
G1 X98.487 Y119.503 E15.29349
G1 X97.92 Y119.348 E15.31695
G1 X96.9 Y118.977 E15.36027
G1 X96.17 Y118.641 E15.39234
G1 X95.421 Y118.245 E15.42616
G1 X94.395 Y117.53 E15.47607
G1 X93.823 Y117.082 E15.50507
G1 X93.148 Y116.399 E15.54339
G1 X92.568 Y115.719 E15.57907
G1 X91.96 Y114.88 E15.62042
G1 X91.519 Y114.159 E15.65415
G1 X91.174 Y113.519 E15.68317
G1 X90.873 Y112.758 E15.71584
G1 X90.583 Y111.867 E15.75323
G1 X90.397 Y111.165 E15.78222
G1 X90.302 Y110.574 E15.80611
G1 X90.22 Y109.857 E15.83491
G1 X90.177 Y109.106 E15.86494
G1 X90.178 Y100.974 E16.1895
G1 X90.22 Y100.23 E16.21924
G1 X90.305 Y99.482 E16.24929
G1 X90.497 Y98.484 E16.28985
G1 X90.652 Y97.918 E16.31327
G1 X91.021 Y96.905 E16.3563
G1 X91.357 Y96.174 E16.38842
G1 X91.751 Y95.426 E16.42216
G1 X92.468 Y94.397 E16.47221
G1 X92.915 Y93.825 E16.50119
G1 X93.626 Y93.126 E16.54098
M204 S3000
M205 X10 Y10
G0 F9000 X93.884 Y93.432
M204 S2000
M205 X8 Y8
G1 F2400 X94.604 Y92.824 E16.57859
G1 X95.391 Y92.259 E16.61726
G1 X95.891 Y91.956 E16.6406
G1 X96.602 Y91.579 E16.67272
G1 X97.7 Y91.151 E16.71975
G1 X98.466 Y90.902 E16.7519
G1 X99.49 Y90.698 E16.79357
G1 X100.187 Y90.6 E16.82166
G1 X100.699 Y90.579 E16.84212
G1 X109.024 Y90.578 E17.17439
G1 X109.725 Y90.618 E17.20241
G1 X110.473 Y90.703 E17.23246
G1 X111.408 Y90.882 E17.27045
G1 X111.975 Y91.037 E17.29391
G1 X112.932 Y91.386 E17.33457
G1 X113.662 Y91.722 E17.36664
G1 X114.375 Y92.1 E17.39885
G1 X115.374 Y92.796 E17.44745
G1 X115.928 Y93.231 E17.47556
G1 X116.568 Y93.884 E17.51205
G1 X117.176 Y94.604 E17.54967
G1 X117.741 Y95.391 E17.58833
G1 X118.044 Y95.891 E17.61167
G1 X118.421 Y96.602 E17.64379
G1 X118.849 Y97.7 E17.69082
G1 X119.098 Y98.466 E17.72297
G1 X119.302 Y99.49 E17.76464
G1 X119.4 Y100.187 E17.79274
G1 X119.421 Y100.699 E17.81319
G1 X119.422 Y109.024 E18.14546
G1 X119.382 Y109.725 E18.17348
G1 X119.297 Y110.473 E18.20353
G1 X119.117 Y111.411 E18.24165
G1 X118.962 Y111.977 E18.26507
G1 X118.615 Y112.928 E18.30547
G1 X118.279 Y113.659 E18.33758
G1 X117.901 Y114.374 E18.36986
G1 X117.306 Y115.227 E18.41137
G1 X116.81 Y115.858 E18.44341
G1 X116.079 Y116.591 E18.48472
G1 X115.287 Y117.262 E18.52615
G1 X114.721 Y117.665 E18.55389
G1 X113.928 Y118.144 E18.59086
G1 X113.208 Y118.509 E18.62308
G1 X112.563 Y118.791 E18.65118
G1 X111.834 Y119.012 E18.68158
G1 X111.053 Y119.197 E18.71361
G1 X110.191 Y119.338 E18.74848
G1 X109.549 Y119.397 E18.77421
G1 X108.981 Y119.423 E18.7969
G1 X100.974 Y119.422 E19.11648
G1 X100.275 Y119.382 E19.14442
G1 X99.527 Y119.297 E19.17447
G1 X98.592 Y119.118 E19.21246
G1 X98.025 Y118.963 E19.23592
G1 X97.068 Y118.614 E19.27658
G1 X96.338 Y118.278 E19.30865
G1 X95.623 Y117.899 E19.34095
G1 X94.624 Y117.202 E19.38957
G1 X94.07 Y116.767 E19.41768
G1 X93.453 Y116.139 E19.45282
G1 X92.873 Y115.459 E19.48849
G1 X92.301 Y114.671 E19.52736
G1 X91.86 Y113.95 E19.56109
G1 X91.527 Y113.33 E19.58918
G1 X91.253 Y112.634 E19.61903
G1 X90.963 Y111.743 E19.65643
G1 X90.784 Y111.062 E19.68453
G1 X90.699 Y110.528 E19.70612
G1 X90.617 Y109.811 E19.73492
G1 X90.577 Y109.106 E19.7631
G1 X90.578 Y100.974 E20.08767
G1 X90.618 Y100.275 E20.11561
G1 X90.703 Y99.527 E20.14566
G1 X90.883 Y98.589 E20.18378
G1 X91.038 Y98.023 E20.2072
